X:1
L:1/8
M:2/2
K:G
 D GA ||S B3 (A B)c | B(G FG) EG | [ce]2- [ce]B (cd) | c3 B c^c | d3 c d2 |{e} f2 b2 a2 | 
 g2 B2 e2 | ([de-]2 [^ce]2) ([=ce]/d/c) | B3 (A B)c | B(G FG) EG | c3 B (cd) | c3 (B c^c) | 
 d3 ^c d2 | !slide!f2 b2 a2 | [Bg]2- [Bg][Be] [Bg][Ba] | [Bg]4 || fg | af bf a2 | g2 (fg/f/) e2 | 
 d3 B AG | [EA] [FA]2 [EA] D2 | [EA]/[FA]G/ A/B/c de | a2 gf e2 | d2 f2 a2 | d'2 =c'2 c'2 || 
 a3 ^g ab | a2 A2 d2 |{e} [df]3 e fg | a2 (f/g/f) ed | c<A Bc de/f/ | g2 (f/g/f) e2 | d2 fd fd | 
 =c2 ac a2S ||
